svg/color/req.svg

<?xml version="1.0" encoding="UTF-8"?>
<svg width="32px" height="32px" viewBox="0 0 32 32" version="1.1" xmlns="http://www.w3.org/2000/svg" xmlns:xlink="http://www.w3.org/1999/xlink">
    <title>svg/color/req</title>
    <g id="color/req" stroke="none" stroke-width="1" fill="none" fill-rule="evenodd">
        <circle id="Combined-Shape" fill="#00E6A0" fill-rule="nonzero" cx="16" cy="16" r="16"></circle>
        <path d="M23.0734489,7.5 C23.2517815,7.49619489 23.4239626,7.56541342 23.5499278,7.69171086 L23.5438674,7.68585101 C23.6443656,7.7847545 23.7070698,7.91283527 23.7284827,8.04975492 L23.7366883,8.15382354 L23.7295052,11.5705841 C23.7305273,12.0197673 23.5520991,12.4507534 23.2338714,12.7677672 L23.2338714,12.7677672 L18.9934489,16.9950207 L23.5307728,21.5179785 C23.9584852,21.9435522 24.1266668,22.5649804 23.9719652,23.148177 C23.8172637,23.7313737 23.3631819,24.1877373 22.780768,24.3453601 C22.1983542,24.502983 21.5760908,24.3379184 21.1483785,23.9123447 L21.1483785,23.9123447 L15.4126742,18.1945982 C15.0933263,17.8780627 14.9136802,17.447057 14.9136802,16.9974151 C14.9136802,16.5477732 15.0933263,16.1167675 15.4126742,15.800232 L15.4126742,15.800232 L20.4348674,10.787851 L11.9372517,10.7888235 L11.9372517,22.6768517 C11.9451104,23.1348464 11.7666365,23.5763966 11.4427377,23.9002954 C11.1188389,24.2241943 10.6772887,24.4026682 10.219294,24.3948095 L10.219294,24.3948095 L10.0486806,24.3885251 C9.65334515,24.3539812 9.28053744,24.1815706 8.99728461,23.898515 C8.67356709,23.5750229 8.49428396,23.1344606 8.5,22.6768517 L8.5,22.6768517 L8.5,9.34621791 C8.5,8.28072495 9.26274467,7.5 10.2959137,7.5 L10.2959137,7.5 Z" id="Combined-Shape" fill="#FFFFFF" fill-rule="nonzero"></path>
    </g>
</svg>

<svg width="32" height="32" viewBox="0 0 32 32" xmlns="http://www.w3.org/2000/svg"><g fill="none" fill-rule="nonzero"><circle fill="#00E6A0" cx="16" cy="16" r="16"/><path d="M23.073 7.5a.653.653 0 01.477.192l-.006-.006a.65.65 0 01.184.364l.009.104-.007 3.417c0 .449-.178.88-.496 1.197l-4.24 4.227 4.537 4.523a1.689 1.689 0 11-2.383 2.394l-5.735-5.717a1.686 1.686 0 010-2.395l5.022-5.012h-8.498v11.889a1.69 1.69 0 01-1.718 1.718l-.17-.006A1.696 1.696 0 018.5 22.677V9.347c0-1.066.763-1.847 1.796-1.847z" fill="#FFF"/></g></svg>
